!!!!SEGMENT: pl-kk--kk-i-27--001-004_anonim--missa-sine-nomine-agnus-dei.krn
!!!cenid: 17xx:2222
!!!COM: Anonim
!!!COM-rismID: pe30004985
!!!CDT:
!!!CNT:
!!!OPR: Missa Sine Nomine
!!!OTL: Agnus Dei
!!!OMV: 004
!!!PDT:
!!!AGN: Sacred; Mass
!!!YEC: Copyright 2022 Narodowy Instytut Fryderyka Chopina (https://polishscores.org)
!!!YEM: License CC-BY-4.0 (https://creativecommons.org/licenses/by/4.0)
!!!SMS-siglum: PL-Kk
!!!SMS-shelfmark: Kk.I.27
!!!SMS-shelfwork: 001-004 M
!!!SMS-variant:
!!!SMS-altvar:
!!!NIFC-rismSourceID: 1001156089
!!!NIFC-rismChildID: 1001156089
!!!NIFC-islandoraID: pl-kk:15429
!!!URL-pdf-islandora: https://repozytorium.nifc.pl/islandora/object/pl-kk%3A15429/datastream/PDF/view
!!!URL-scan: https://polish.musicsources.pl/pl/lokalizacje/galeria/rekopisy/7120/1 @EN{Scan on Polish Music Sources Website} @PL{Skany w portalu Dziedzictwo Muzyki Polskiej w otwartym dostępie}
!!!IIIF:
!!!ONB-nifc: UWAGA: części Mszy: 1. Kyrie, 2. Et in terra, 3. Sanctus, 4. Agnus Dei.
!!!AIN: 1 alto 1 empty 1 tenor 1 vox
!!!key:
**kern	**text	**fba	**kern	**text	**kern	**text	**kern	**text
*part4	*	*	*part3	*	*part2	*	*part1	*
*staff4	*	*	*staff3	*	*staff2	*	*staff1	*
*Iempty	*	*	*Itenor	*	*Ialto	*	*Ivox	*
*I"Baſso.	*	*	*I"Tenore	*	*I"Alto.	*	*I"Canto.	*
*I'B	*	*	*I'T	*	*I'A	*	*I'S	*
*clefF4	*	*	*clefC4	*	*clefC3	*	*clefC1	*
*k[]	*	*	*k[]	*	*k[]	*	*k[]	*
*a:	*	*	*a:	*	*a:	*	*a:	*
*M2/1	*	*	*M2/1	*	*M2/1	*	*M2/1	*
*met(C|)	*	*	*met(C|)	*	*met(C|)	*	*met(C|)	*
=1-	=1-	=1-	=1-	=1-	=1-	=1-	=1-	=1-
!	!	!	!LO:TX:t=P:problem=kreska pseudotaktowa	!	!LO:TX:t=P:problem=kreska pseudotaktowa	!	!	!
00r	.	.	00r	.	0r	.	2r	.
*	*	*	*	*	*	*	*2\right	*
!	!	!	!	!	!	!	!LO:TX:t=P:problem=kreska pseudotaktowa	!
.	.	.	.	.	.	.	(2a\	A-
.	.	.	.	.	.	.	2cc\)	.
!	!	!	!	!	!	!	!LO:TX:t=P:problem=kreska pseudotaktowa	!
.	.	.	.	.	.	.	2dd\	-gnus
=2-	=2-	=2-	=2-	=2-	=2-	=2-	=2-	=2-
!	!	!	!	!	!	!	!LO:TX:t=P:problem=kreska pseudotaktowa	!
.	.	.	.	.	2r	.	1ee	De-
*	*	*	*	*	*2\right	*	*	*
.	.	.	.	.	2e\	A-	.	.
.	.	.	.	.	2f#X\	.	2dd\	.
!	!	!	!	!	!LO:TX:t=P:problem=kreska pseudotaktowa	!	!	!
.	.	.	.	.	2g#X\	-gnus	4ee\	.
!	!	!	!	!	!	!	!LO:TX:t=P:problem=kreska pseudotaktowa	!
.	.	.	.	.	.	.	4dd\	.
=3-	=3-	=3-	=3-	=3-	=3-	=3-	=3-	=3-
!LO:TX:t=P:problem=kreska pseudotaktowa	!	!	!	!	!	!	!	!
0r	.	.	2r	.	1.a	De-	4cc\	.
.	.	.	.	.	.	.	4dd\	.
*	*	*	*2\right	*	*	*	*	*
!	!	!	!LO:TX:t=P:problem=kreska pseudotaktowa	!	!	!	!	!
.	.	.	(2A\	A-	.	.	1ee	.
.	.	.	2c\)	.	.	.	.	.
!	!	!	!LO:TX:t=P:problem=kreska pseudotaktowa	!	!	!	!	!
.	.	.	2d\	-gnus	4b\	.	4dd\	.
.	.	.	.	.	4a\	.	4cc\	.
=4-	=4-	=4-	=4-	=4-	=4-	=4-	=4-	=4-
!	!	!	!	!	!LO:TX:t=P:problem=kreska pseudotaktowa	!	!LO:TX:t=P:problem=kreska pseudotaktowa	!
!	!	!	!	!	!	!	!LO:TX:t=P:global:problem=rozdzielacz słów	!
2r	.	.	1e	De-	1g#X,<	-i,	1b,<	-i
*2\right	*	*	*	*	*	*	*	*
!LO:TX:t=P:problem=kreska pseudotaktowa	!	!	!	!	!	!	!	!
(2E\	A-	.	.	.	.	.	.	.
2F#X\)	.	.	2d\	.	1r	.	2r	.
!LO:TX:t=P:problem=kreska pseudotaktowa	!	!	!	!	!	!	!LO:TX:t=P:problem=kreska pseudotaktowa	!
2G#X\	-gnus	.	4e\	.	.	.	2ee\	Qui
!	!	!	!LO:TX:t=P:problem=kreska pseudotaktowa	!	!	!	!	!
.	.	.	4d\	.	.	.	.	.
=5-	=5-	=5-	=5-	=5-	=5-	=5-	=5-	=5-
!	!	!	!LO:TX:t=P:problem=kreska pseudotaktowa	!	!	!	!	!
1A	De-	.	1c	.	2r	.	2a\	tol-
!	!	!	!	!	!LO:TX:t=P:problem=kreska pseudotaktowa	!	!	!
.	.	.	.	.	2a\	Qui	4a\	-lis
!	!	!	!	!	!	!	!LO:TX:t=P:problem=kreska pseudotaktowa	!
.	.	.	.	.	.	.	4a\	pec-
!LO:TX:t=P:problem=kreska pseudotaktowa	!	!	!	!	!	!	!	!
1G#X,<	-i	.	2B,<\	-i	2e\	tol-	1b	-ca-
!	!	!	!LO:TX:t=P:problem=kreska pseudotaktowa	!	!	!	!	!
.	.	.	2e\	Qui	4e\	-lis	.	.
!	!	!	!	!	!LO:TX:t=P:problem=kreska pseudotaktowa	!	!	!
.	.	.	.	.	4e\	pec-	.	.
=6-	=6-	=6-	=6-	=6-	=6-	=6-	=6-	=6-
2r	.	.	2A/	tol-	1a	-ca-	2cc,<\	-ta
*	*	*	*	*	*	*	*	*ij
!LO:TX:t=P:problem=kreska pseudotaktowa	!	!	!	!	!	!	!LO:TX:t=P:problem=kreska pseudotaktowa	!
2A\	Qui	.	4A/	-lis	.	.	2cc\	pec-
!	!	!	!LO:TX:t=P:problem=kreska pseudotaktowa	!	!	!	!	!
.	.	.	4A/	pec-	.	.	.	.
2E\	tol-	.	2B\	-ca-	2gn,<\	-ta	1b	-ca-
*	*	*	*	*	*	*ij	*	*
4E,<\	-lis	.	1e\	.	2g\	pec-	.	.
!LO:TX:t=P:problem=kreska pseudotaktowa	!	!	!	!	!	!	!	!
4E\	pec-	.	.	.	.	.	.	.
=7-	=7-	=7-	=7-	=7-	=7-	=7-	=7-	=7-
2A\	-ca-	.	.	.	2.f#X\	-ca-	2cc,<\	-ta
*	*	*	*	*	*	*	*	*Xij
2B\	-ta	.	2d#X,<\	-ta	.	.	1b	mun-
.	.	.	.	.	4f#\	-ta	.	.
*	*	*	*	*	*	*Xij	*	*
!	!	!	!LO:TX:t=P:problem=kreska pseudotaktowa	!	!	!	!	!
1c	mun-	.	1e	mun-	1e	mun-	.	.
.	.	.	.	.	.	.	2a\	.
=8-	=8-	=8-	=8-	=8-	=8-	=8-	=8-	=8-
!LO:TX:t=P:problem=kreska pseudotaktowa	!	!	!LO:TX:t=P:problem=kreska pseudotaktowa	!	!LO:TX:t=P:problem=kreska pseudotaktowa	!	!LO:TX:t=P:problem=kreska pseudotaktowa	!
1Bn	-di	.	1d#X,<	-di	1f#X,<	-di	1b,<	-di
!LO:SIC:v:o=2Gn\	!	!	!	!	!	!	!	!
2G#\	mi-	.	2.e\	mi-	2.g#X\	mi-	2.b\	mi-
2E\	-ſe-	.	.	.	.	.	.	.
*	*	*	*	*	*	*	*custos:cc	*
!	!	!	!	!	!	!	!LO:TX:t=P:problem=kreska pseudotaktowa	!
!	!	!	!LO:TX:t=P:problem=kreska pseudotaktowa	!	!	!	!	!
.	.	.	4e\	-ſe-	4g#\	-ſe-	4b\	-ſe-
!	!	!	!LO:LB:g=original	!	!	!	!LO:LB:g=original	!
=9-	=9-	=9-	=9-	=9-	=9-	=9-	=9-	=9-
2.A\	-re-	.	2.e\	-re-	4a\	-re-	2.cc\	-re-
.	.	.	.	.	4A/	.	.	.
.	.	.	.	.	1e	-re	.	.
!	!	!	!LO:TX:t=P:problem=kreska pseudotaktowa	!	!	!	!	!
4G\	-re	.	4B\	-re	.	.	4b\	-re
1Fny	no-	.	2c\	no-	.	.	1a	no-
.	.	.	2A\	.	2d\	no-	.	.
=10-	=10-	=10-	=10-	=10-	=10-	=10-	=10-	=10-
0El;	-bis.	.	0Bl;	-bis.	0el;	-bis.	0g#Xl;	-bis.
!LO:LB:g=original	!	!	!	!	!	!	!	!
=11||	=11||	=11||	=11||	=11||	=11||	=11||	=11||	=11||
*M2/1	*	*	*M2/1	*	*M2/1	*	*M2/1	*
*met(C|)	*	*	*met(C|)	*	*met(C|)	*	*met(C|)	*
!LO:TX:b:t=Agn(us)	!	!	!LO:TX:b:t=Agn(us)	!	!LO:TX:t=P:problem=kreska pseudotaktowa	!	!	!
00rF	.	.	00r	.	1rf	.	2cc\	A-
!	!	!	!	!	!	!	!LO:TX:t=P:problem=kreska pseudotaktowa	!
.	.	.	.	.	.	.	2cc\	-gnus
.	.	.	.	.	2f\	A-	2a\	De-
!	!	!	!	!	!LO:TX:t=P:problem=kreska pseudotaktowa	!	!	!
.	.	.	.	.	2f\	-gn(us)	4a\	-i
!	!	!	!	!	!	!	!LO:TX:t=P:problem=kreska pseudotaktowa	!
.	.	.	.	.	.	.	4a\	qui
=12-	=12-	=12-	=12-	=12-	=12-	=12-	=12-	=12-
.	.	.	.	.	2d\	De-	2dd\	tol-
.	.	.	.	.	4d\	-i	4dd\	-lis
!	!	!	!	!	!	!	!LO:TX:t=P:problem=kreska pseudotaktowa	!
.	.	.	.	.	4d\	qui	4cc\	p(ec)-
.	.	.	.	.	2g\	tol-	2b\	-c(a)-
.	.	.	.	.	4g\	-lis	4b,<\	-ta
!	!	!	!	!	!LO:TX:t=P:problem=kreska pseudotaktowa	!	!LO:TX:t=P:problem=kreska pseudotaktowa	!
.	.	.	.	.	4f\	pec-	4g/	qui
=13-	=13-	=13-	=13-	=13-	=13-	=13-	=13-	=13-
!LO:TX:t=P:problem=kreska pseudotaktowa	!	!	!LO:TX:t=P:problem=kreska pseudotaktowa	!	!	!	!	!
0r	.	.	0r	.	2e\	-ca-	2cc\	tol-
.	.	.	.	.	4e,<\	-ta	4cc\	-lis
*	*	*	*	*	*	*ij	*	*
!	!	!	!	!	!LO:TX:t=P:problem=kreska pseudotaktowa	!	!LO:TX:t=P:problem=kreska pseudotaktowa	!
.	.	.	.	.	4c\	pec-	4b\	pec-
.	.	.	.	.	(4f\	-ca-	4a\	-ca-
.	.	.	.	.	4e\)	.	4g\	.
.	.	.	.	.	(4d\	-ta	4f/	-ta
!	!	!	!	!	!	!	!LO:TX:t=P:problem=kreska pseudotaktowa	!
.	.	.	.	.	4c\)	.	4e/	.
*	*	*	*	*	*	*Xij	*	*
=14-	=14-	=14-	=14-	=14-	=14-	=14-	=14-	=14-
2G\	mi-	.	2Bn\	mi-	2B/	mun-	1d	mun-
!LO:TX:t=P:problem=kreska pseudotaktowa	!	!	!LO:TX:t=P:problem=kreska pseudotaktowa	!	!LO:TX:t=P:problem=kreska pseudotaktowa	!	!	!
2G\	-ſe-	.	2B\	-ſe-	2B,</	-di	.	.
!	!	!	!	!	!	!	!LO:TX:t=P:problem=kreska pseudotaktowa	!
(4G\	-re-	.	(4B\	-re-	2g\	mi-	1d,<	-di
4F\	.	.	4A\	.	.	.	.	.
4E\)	.	.	4G/)	.	2g\	-ſe-	.	.
!LO:TX:t=P:problem=kreska pseudotaktowa	!	!	!LO:TX:t=P:problem=kreska pseudotaktowa	!	!	!	!	!
4D\	-re	.	4F/	-re	.	.	.	.
=15-	=15-	=15-	=15-	=15-	=15-	=15-	=15-	=15-
2C/	no-	.	2E/	no-	4g\	-re-	2g\	mi-
.	.	.	.	.	(4f\	.	.	.
!LO:TX:t=P:problem=kreska pseudotaktowa	!	!	!LO:TX:t=P:problem=kreska pseudotaktowa	!	!	!	!LO:TX:t=P:problem=kreska pseudotaktowa	!
2C,</	-bis	.	2E,</	-bis	4e\	.	2g\	-se-
!	!	!	!	!	!LO:TX:t=P:problem=kreska pseudotaktowa	!	!	!
.	.	.	.	.	4d\)	.	.	.
2c\	mi-	.	2e\	mi-	2c/	.	(4g\	-re-
.	.	.	.	.	.	.	4a\)	.
!LO:TX:t=P:problem=kreska pseudotaktowa	!	!	!LO:TX:t=P:problem=kreska pseudotaktowa	!	!LO:TX:t=P:problem=kreska pseudotaktowa	!	!	!
2c\	-ſe-	.	2e\	-ſe-	2c,</	-re	(4g\	-re
!	!	!	!	!	!	!	!LO:TX:t=P:problem=kreska pseudotaktowa	!
.	.	.	.	.	.	.	4f/)	.
=16-	=16-	=16-	=16-	=16-	=16-	=16-	=16-	=16-
4c\	-re-	.	4e\	-re-	2cc\	mi-	2e/	no-
4B-X\	.	.	4d\	.	.	.	.	.
!	!	!	!	!	!	!	!LO:TX:t=P:problem=kreska pseudotaktowa	!
4A\	-re	.	4c\	.	2cc\	-ſe-	2e,</	bis
!LO:TX:t=P:problem=kreska pseudotaktowa	!	!	!LO:TX:t=P:problem=kreska pseudotaktowa	!	!	!	!	!
4G\	.	.	4B\	.	.	.	.	.
!LO:TX:t=P:problem=kreska pseudotaktowa	!	!	!	!	!	!	!	!
1[<F	no-	.	[<1A	.	4cc\	-re-	2a\	mi-
.	.	.	.	.	4b\	.	.	.
!	!	!	!	!	!	!	!LO:TX:t=P:problem=kreska pseudotaktowa	!
.	.	.	.	.	(4a\	-re	2a\	-ſe-
!	!	!	!	!	!LO:TX:t=P:problem=kreska pseudotaktowa	!	!	!
.	.	.	.	.	4g,<\)	.	.	.
!	!	!	!	!	!	!	!LO:LB:g=original	!
=17-	=17-	=17-	=17-	=17-	=17-	=17-	=17-	=17-
4F]	.	.	4A]	.	4f\	no-	4a\	-re-
4E\	.	.	4c\	.	4g\	.	4e/	.
4D/	.	.	4B\	-re	4f\	.	(4f/	-re
!LO:TX:t=P:problem=kreska pseudotaktowa	!	!	!LO:TX:t=P:problem=kreska pseudotaktowa	!	!	!	!	!
4C/	.	.	4c\	.	4e\	.	4g/)	.
!LO:TX:t=P:problem=kreska pseudotaktowa	!	!	!LO:TX:t=P:problem=kreska pseudotaktowa	!	!LO:TX:t=P:problem=kreska pseudotaktowa	!	!LO:TX:t=P:problem=kreska pseudotaktowa	!
[<1G	-bis	.	1B	no-	1d	.	1g	no-
=18-	=18-	=18-	=18-	=18-	=18-	=18-	=18-	=18-
2G,<]	.	.	2B,<\	-bis	2d,<\	-bis	2g,<\	-bis
4E\	mi-	.	4B\	mi-	4e\	mi-	4g#X\	mi-
*	*	*	*custos:c	*	*	*	*	*
!LO:TX:t=P:problem=kreska pseudotaktowa	!	!	!LO:TX:t=P:problem=kreska pseudotaktowa	!	!LO:TX:t=P:problem=kreska pseudotaktowa	!	!LO:TX:t=P:problem=kreska pseudotaktowa	!
4E\	-ſe-	.	4B\	-ſe-	4e\	-ſe-	4g#\	-ſe-
!	!	!	!LO:LB:g=original	!	!LO:LB:g=original	!	!	!
2A\	-re-	.	2c\	-re-	2e\	-re-	2a\	-re-
!LO:TX:t=P:problem=kreska pseudotaktowa	!	!	!LO:TX:t=P:problem=kreska pseudotaktowa	!	!LO:TX:t=P:problem=kreska pseudotaktowa	!	!LO:TX:t=P:problem=kreska pseudotaktowa	!
2E,<\	-re	.	2B\	-re	2e\	-re	2g#X,<\	-re
!LO:LB:g=original	!	!	!	!	!	!	!	!
=19-	=19-	=19-	=19-	=19-	=19-	=19-	=19-	=19-
*	*	*	*	*ij	*	*	*	*ij
2A\	mi-	.	2c\	mi-	2e\	mi-	2a\	mi-
!LO:TX:t=P:problem=kreska pseudotaktowa	!	!	!LO:TX:t=P:problem=kreska pseudotaktowa	!	!	!	!LO:TX:t=P:problem=kreska pseudotaktowa	!
2E\	-se-	.	2B\	-ſe-	2e\	-se-	2g#X\	-ſe-
2AA/	-re-	.	2c\	-re-	2e\	-re-	2a\	-re-
!LO:TX:t=P:problem=kreska pseudotaktowa	!	!	!LO:TX:t=P:problem=kreska pseudotaktowa	!	!LO:TX:t=P:problem=kreska pseudotaktowa	!	!LO:TX:t=P:problem=kreska pseudotaktowa	!
2E\	-re	.	2B\	-re	2e\	-re	2g#X\	-re
*	*	*	*	*Xij	*	*	*	*Xij
=20-	=20-	=20-	=20-	=20-	=20-	=20-	=20-	=20-
*lig	*	*	*	*	*	*	*	*
1A	no-	.	0c	no-	0e	no-	0a	no-
1AA	.	.	.	.	.	.	.	.
*Xlig	*	*	*	*	*	*	*	*
=21-	=21-	=21-	=21-	=21-	=21-	=21-	=21-	=21-
!LO:TX:b:t=Agnus 3tium Vertat	!	!	!	!	!	!	!	!
0El;	-bis.	.	0Bnl;	-bis.	0el;	-bis.	0g#Xl;	-bis
!LO:PB:g=original	!	!	!	!	!	!	!	!
=22||	=22||	=22||	=22||	=22||	=22||	=22||	=22||	=22||
*M2/1	*	*	*M2/1	*	*M2/1	*	*M2/1	*
*met(C|)	*	*	*met(C|)	*	*met(C|)	*	*met(C|)	*
!LO:TX:a:t=3tium	!	!	!LO:TX:t=P:problem=kreska pseudotaktowa	!	!	!	!LO:TX:b:t=3.	!
!	!	!	!	!	!	!	!LO:TX:t=P:problem=kreska pseudotaktowa	!
2r	.	.	1re	.	2r	.	1ree	.
!	!	!	!	!	!LO:TX:t=P:problem=kreska pseudotaktowa	!	!	!
1c	A-	.	.	.	2e\	A-	.	.
.	.	.	(2d\	A-	(2fn\	.	2r	.
!LO:TX:t=P:problem=kreska pseudotaktowa	!	!	!LO:TX:t=P:problem=kreska pseudotaktowa	!	!LO:TX:t=P:problem=kreska pseudotaktowa	!	!	!
2B-X\	.	.	2e\)	.	2g\)	.	(<2gny/	A-
=23-	=23-	=23-	=23-	=23-	=23-	=23-	=23-	=23-
2A\	.	.	2f\	.	2a\	.	1.cc)	.
!LO:TX:t=P:problem=kreska pseudotaktowa	!	!	!	!	!LO:TX:t=P:problem=kreska pseudotaktowa	!	!	!
2F,<\	-gnus	.	1f,<	-gnus	2a,<\	-gnus	.	.
2c\	De-	.	.	.	1g	De-	.	.
!LO:TX:t=P:problem=kreska pseudotaktowa	!	!	!LO:TX:t=P:problem=kreska pseudotaktowa	!	!	!	!LO:TX:t=P:problem=kreska pseudotaktowa	!
2C/	.	.	[<2e\	De-	.	.	2cc\	-gn(us)
=24-	=24-	=24-	=24-	=24-	=24-	=24-	=24-	=24-
4D\	-i	.	2e\]	.	1fn	.	1a	De-
4E,<\	.	.	.	.	.	.	.	.
(4F\	qui	.	1d	-i	.	.	.	.
!LO:TX:t=P:problem=kreska pseudotaktowa	!	!	!	!	!	!	!	!
4G\)	.	.	.	.	.	.	.	.
1A	tol-	.	.	.	2e,<\	-i	2a,<\	-i
!	!	!	!LO:TX:t=P:problem=kreska pseudotaktowa	!	!LO:TX:t=P:problem=kreska pseudotaktowa	!	!	!
.	.	.	2c\	qui	2e\	qui	1cc\	Qui
=25-	=25-	=25-	=25-	=25-	=25-	=25-	=25-	=25-
!LO:TX:t=P:problem=kreska pseudotaktowa	!	!	!	!	!	!	!	!
[<1B-X	.	.	(1B-X	tol-	2d\	tol-	.	.
!	!	!	!	!	!LO:TX:t=P:problem=kreska pseudotaktowa	!	!LO:TX:t=P:problem=kreska pseudotaktowa	!
.	.	.	.	.	2d,<\	-lis	2b-X\	.
2B-]	.	.	1c)	.	2e\	tol-	(2g/	tol-
*	*	*	*	*	*	*	*custos:g	*
!	!	!	!	!	!	!	!LO:TX:t=P:problem=kreska pseudotaktowa	!
2A\	.	.	.	.	1f\	.	2f/)	.
!	!	!	!	!	!	!	!LO:LB:g=original	!
=26-	=26-	=26-	=26-	=26-	=26-	=26-	=26-	=26-
!LO:TX:t=P:problem=kreska pseudotaktowa	!	!	!LO:TX:t=P:problem=kreska pseudotaktowa	!	!	!	!	!
1G	.	.	1B-X	.	.	.	2g,</	-lis
!	!	!	!	!	!LO:TX:t=P:problem=kreska pseudotaktowa	!	!LO:TX:t=P:problem=kreska pseudotaktowa	!
.	.	.	.	.	2e\	.	2g/	pec-
2F,<\	-lis	.	2A,<\	-lis	2f,<\	-lis	1c	-ca-
!	!	!	!	!	!LO:TX:t=P:problem=kreska pseudotaktowa	!	!	!
2F\	qui	.	2A\	qui	2f\	Qui	.	.
=27-	=27-	=27-	=27-	=27-	=27-	=27-	=27-	=27-
2En\	tol-	.	2c#X\	tol-	(2g\	tol-	2e/	-ta
!LO:TX:t=P:problem=kreska pseudotaktowa	!	!	!LO:TX:t=P:problem=kreska pseudotaktowa	!	!LO:TX:t=P:problem=kreska pseudotaktowa	!	!	!
2D/	.	.	2d\	.	2f\)	.	(4fn/	.
!	!	!	!	!	!	!	!LO:TX:t=P:problem=kreska pseudotaktowa	!
.	.	.	.	.	.	.	4a/)	.
!	!	!	!LO:LB:g=original	!	!	!	!	!
2A\	.	.	2c#X,<\	-lis	2e\	.	1.a	mun-
!LO:TX:t=P:problem=kreska pseudotaktowa	!	!	!LO:TX:t=P:problem=kreska pseudotaktowa	!	!	!	!	!
2D/	.	.	2d\	pec-	1f\	.	.	.
=28-	=28-	=28-	=28-	=28-	=28-	=28-	=28-	=28-
1BB-X	.	.	1d	-ca-	.	.	.	.
!	!	!	!	!	!	!	!LO:TX:t=P:problem=kreska pseudotaktowa	!
.	.	.	.	.	4g\	.	2g\	.
!	!	!	!	!	!LO:TX:t=P:problem=kreska pseudotaktowa	!	!	!
.	.	.	.	.	4d\	.	.	.
2AA,</	-lis	.	2c#X,<\	-ta	2e,<\	-lis	2a,<\	-di
!	!	!	!LO:TX:t=P:problem=kreska pseudotaktowa	!	!LO:TX:t=P:problem=kreska pseudotaktowa	!	!LO:TX:t=P:problem=kreska pseudotaktowa	!
1A\	pec-	.	2c#\	pec-	2e\	pec-	2a\	pec-
=29-	=29-	=29-	=29-	=29-	=29-	=29-	=29-	=29-
!	!	!	!LO:TX:t=P:problem=kreska pseudotaktowa	!	!	!	!	!
.	.	.	[<1A	-ca-	(2d\	-ca-	(2bn\	-ca-
!LO:TX:t=P:problem=kreska pseudotaktowa	!	!	!	!	!LO:TX:t=P:problem=kreska pseudotaktowa	!	!	!
2G\	.	.	.	.	2e\)	.	2cc#X\)	.
(2F\	-ca-	.	2A\]	.	2f,<\	-ta	2dd,<\	-ta
*	*	*	*	*	*	*	*	*ij
!LO:TX:t=P:problem=kreska pseudotaktowa	!	!	!LO:TX:t=P:problem=kreska pseudotaktowa	!	!LO:TX:t=P:problem=kreska pseudotaktowa	!	!	!
2D/)	.	.	2d\	.	2f\	pec-	2dd\	pec-
!LO:LB:g=original	!	!	!	!	!	!	!	!
=30-	=30-	=30-	=30-	=30-	=30-	=30-	=30-	=30-
!	!	!	!	!	!LO:TX:t=P:problem=kreska pseudotaktowa	!	!LO:TX:t=P:problem=kreska pseudotaktowa	!
2.G,<\	-ta	.	2d,<\	-ta	[<1g	-ca-	1b	-ca-
!	!	!	!LO:TX:t=P:problem=kreska pseudotaktowa	!	!	!	!	!
.	.	.	2d\	Qui	.	.	.	.
!LO:TX:t=P:problem=kreska pseudotaktowa	!	!	!	!	!	!	!	!
4F\	pec-	.	.	.	.	.	.	.
2E\	-ca-	.	1e	tol-	2g\]	.	2ccny,<\	-ta
*	*	*	*	*	*	*	*	*Xij
!LO:TX:t=P:problem=kreska pseudotaktowa	!	!	!	!	!LO:TX:t=P:problem=kreska pseudotaktowa	!	!	!
2C/	.	.	.	.	2g,<\	-ta	2cc\	mun-
=31-	=31-	=31-	=31-	=31-	=31-	=31-	=31-	=31-
2F\	.	.	(1.cny	.	(2f\	pec-	(2a\	.
!LO:TX:t=P:problem=kreska pseudotaktowa	!	!	!	!	!	!	!LO:TX:t=P:problem=kreska pseudotaktowa	!
2C,</	-ta	.	.	.	2e\)	.	2g\)	.
1G	mun-	.	.	.	1d	-ca-	2g,<\	-di
!	!	!	!LO:TX:t=P:problem=kreska pseudotaktowa	!	!	!	!	!
.	.	.	2Bny\)	.	.	.	2g\	pec-
=32-	=32-	=32-	=32-	=32-	=32-	=32-	=32-	=32-
!	!	!	!	!	!LO:TX:t=P:problem=kreska pseudotaktowa	!	!	!
2E,<\	-di	.	2B,<\	-lis	[<1e	-ta	2g#X/	-ca-
!LO:TX:t=P:problem=kreska pseudotaktowa	!	!	!LO:TX:t=P:problem=kreska pseudotaktowa	!	!	!	!LO:TX:t=P:problem=kreska pseudotaktowa	!
2E\	pec-	.	2B\	pec-	.	.	2g#/	-ta
2A\	-ca-	.	2c\	-ca-	2e\]	.	2a\	mun-
2E\	-ta	.	2B\	-ta	1e\	mun-	2g#/	.
=33-	=33-	=33-	=33-	=33-	=33-	=33-	=33-	=33-
1BBny	mun-	.	1B	mun-	.	.	1f#X	.
.	.	.	.	.	2d#X\	.	.	.
*	*	*	*	*	*custos:e	*	*	*
1BBl;	-di.	.	1Bl;	-di	1d#Xl;	-di.	1f#l;	-di.
!	!	!	!	!	!LO:PB:g=original	!	!LO:PB:g=original	!
=34||	=34||	=34||	=34||	=34||	=34||	=34||	=34||	=34||
*M2/1	*	*	*M2/1	*	*M2/1	*	*M2/1	*
*met(C|)	*	*	*met(C|)	*	*met(C|)	*	*met(C|)	*
!LO:TX:t=P:problem=kreska pseudotaktowa	!	!	!LO:TX:t=P:problem=kreska pseudotaktowa	!	!	!	!	!
0r	.	.	0r	.	0ra	.	2r	.
.	.	.	.	.	.	.	4g\	Do-
!	!	!	!	!	!	!	!LO:TX:t=P:problem=kreska pseudotaktowa	!
.	.	.	.	.	.	.	4a\	-na
.	.	.	.	.	.	.	(4b\	no-
.	.	.	.	.	.	.	4cc\)	.
.	.	.	.	.	.	.	(4dd\	-bis
!	!	!	!	!	!	!	!LO:TX:t=P:problem=kreska pseudotaktowa	!
.	.	.	.	.	.	.	4ee\)	.
=35-	=35-	=35-	=35-	=35-	=35-	=35-	=35-	=35-
!	!	!	!	!	!LO:TX:t=P:problem=kreska pseudotaktowa	!	!LO:TX:t=P:problem=kreska pseudotaktowa	!
2r	.	.	2r	.	1ra	.	1f#X	pa-
4D\	Do-	.	4F#X/	Do-	.	.	.	.
!LO:TX:t=P:problem=kreska pseudotaktowa	!	!	!LO:TX:t=P:problem=kreska pseudotaktowa	!	!	!	!	!
4E\	-na	.	4G/	-na	.	.	.	.
!	!	!	!	!	!	!	!LO:TX:t=P:problem=kreska pseudotaktowa	!
4F#X\	no-	.	(4A\	no-	2d\	Do-	1f#,<	-cem
4G\	.	.	4B\)	.	.	.	.	.
!	!	!	!	!	!LO:TX:t=P:problem=kreska pseudotaktowa	!	!	!
4A\	-bis	.	(4cn\	-bis	2d\	-na	.	.
!LO:TX:t=P:problem=kreska pseudotaktowa	!	!	!LO:TX:t=P:problem=kreska pseudotaktowa	!	!	!	!	!
4B\	.	.	4d\)	.	.	.	.	.
!	!	!	!LO:LB:g=original	!	!	!	!	!
=36-	=36-	=36-	=36-	=36-	=36-	=36-	=36-	=36-
!	!	!	!LO:TX:t=P:problem=kreska pseudotaktowa	!	!	!	!	!
1Cn	pa-	4 2	1A	pa-	2d\	no-	2f#X/	Do-
!	!	!	!	!	!LO:TX:t=P:problem=kreska pseudotaktowa	!	!	!
.	.	.	.	.	2d\	-bis	2f#/	-na
2BB/	.	.	2B,<\	-cem	2d\	pa-	(4g\	no-
.	.	.	.	.	.	.	4a\)	.
!LO:TX:t=P:problem=kreska pseudotaktowa	!	!	!	!	!	!	!LO:TX:t=P:problem=kreska pseudotaktowa	!
2GG/	.	.	4B\	do-	1g\	.	2b\	-bis
!	!	!	!LO:TX:t=P:problem=kreska pseudotaktowa	!	!	!	!	!
.	.	.	4d\	-na	.	.	.	.
=37-	=37-	=37-	=37-	=37-	=37-	=37-	=37-	=37-
2.D\	.	.	2d\	no-	.	.	1a	pa-
!	!	!	!LO:TX:t=P:problem=kreska pseudotaktowa	!	!LO:TX:t=P:problem=kreska pseudotaktowa	!	!	!
.	.	.	2d\	-bis	2f#X\	.	.	.
4C/	.	.	.	.	.	.	.	.
*	*	*	*	*ij	*	*	*	*
2BB/	.	.	2d\	no-	2g,<\	-cem	2b,<\	-cem
*	*	*	*	*	*	*ij	*	*ij
*custos:D	*	*	*	*	*	*	*	*
!LO:TX:t=P:problem=kreska pseudotaktowa	!	!	!	!	!	!	!	!
!	!	!	!LO:TX:t=P:problem=kreska pseudotaktowa	!	!	!	!LO:TX:t=P:problem=kreska pseudotaktowa	!
2GG/	.	.	2d\	-bis	1g\	pa-	2b\	pa-
*	*	*	*	*Xij	*	*	*	*
!LO:LB:g=original	!	!	!	!	!	!	!	!
=38-	=38-	=38-	=38-	=38-	=38-	=38-	=38-	=38-
1D	.	.	1d	pa-	.	.	1a	.
.	.	.	.	.	2f#X\	.	.	.
!	!	!	!LO:TX:t=P:problem=kreska pseudotaktowa	!	!LO:TX:t=P:problem=kreska pseudotaktowa	!	!LO:TX:t=P:problem=kreska pseudotaktowa	!
2GG,</	-cem	.	1d,<	-cem	1g	-cem	1b,<	-cem
*	*	*	*	*	*	*Xij	*	*Xij
4GG/	do-	.	.	.	.	.	.	.
!LO:TX:t=P:problem=kreska pseudotaktowa	!	!	!	!	!	!	!	!
4AA/	-na	.	.	.	.	.	.	.
=39-	=39-	=39-	=39-	=39-	=39-	=39-	=39-	=39-
!	!	!	!LO:TX:t=P:problem=kreska pseudotaktowa	!	!LO:TX:t=P:problem=kreska pseudotaktowa	!	!LO:TX:t=P:problem=kreska pseudotaktowa	!
(4BB/	no-	.	0re	.	0r	.	1r	.
4C/)	.	.	.	.	.	.	.	.
(4D/	-bis	.	.	.	.	.	.	.
4E/)	.	.	.	.	.	.	.	.
!LO:TX:t=P:problem=kreska pseudotaktowa	!	!	!	!	!	!	!	!
[<1Fn	pa-	.	.	.	.	.	2rf	.
.	.	.	.	.	.	.	4d/	Do-
!	!	!	!	!	!	!	!LO:TX:t=P:problem=kreska pseudotaktowa	!
.	.	.	.	.	.	.	4e/	-na
=40-	=40-	=40-	=40-	=40-	=40-	=40-	=40-	=40-
1F]	.	.	2d\	Do-	2d\	Do-	4fn/	no-
.	.	.	.	.	.	.	4g/	.
!	!	!	!LO:TX:t=P:problem=kreska pseudotaktowa	!	!LO:TX:t=P:problem=kreska pseudotaktowa	!	!	!
.	.	.	2d\	-na	2d\	-na	(4a/	-bis
.	.	.	.	.	.	.	4b/)	.
!LO:TX:t=P:problem=kreska pseudotaktowa	!	!	!	!	!	!	!LO:TX:t=P:problem=kreska pseudotaktowa	!
1En,<	-cem	.	2c\	no-	2e\	no-	0ccn	pa-
!	!	!	!LO:TX:t=P:problem=kreska pseudotaktowa	!	!	!	!	!
.	.	.	2e\	-bis	4e\	.	.	.
!	!	!	!	!	!LO:TX:t=P:problem=kreska pseudotaktowa	!	!	!
.	.	.	.	.	4c/	-bis	.	.
=41-	=41-	=41-	=41-	=41-	=41-	=41-	=41-	=41-
2E\	do-	.	(2e\	pa-	2g\	pa-	.	.
!LO:TX:t=P:problem=kreska pseudotaktowa	!	!	!LO:TX:t=P:problem=kreska pseudotaktowa	!	!LO:TX:t=P:problem=kreska pseudotaktowa	!	!	!
2F#X\	-na	.	2A/)	.	2f#X,<\	-cem	.	.
!LO:TX:t=P:problem=kreska pseudotaktowa	!	!	!	!	!	!	!LO:LB:g=original	!
1G	no-	.	2B,<\	-cem	2d\	do-	2b,<\	-cem
!	!	!	!	!	!	!	!LO:TX:t=P:problem=kreska pseudotaktowa	!
.	.	.	2e\	no-	(4g\	-na	2cc#X\	pa-
!	!	!	!	!	!LO:TX:t=P:problem=kreska pseudotaktowa	!	!	!
.	.	.	.	.	4e\)	.	.	.
=42-	=42-	=42-	=42-	=42-	=42-	=42-	=42-	=42-
(2Fn\	-bis	.	2A,<\	-bis	2fn\	no-	(2.dd\	.
!LO:TX:t=P:problem=kreska pseudotaktowa	!	!	!	!	!LO:TX:t=P:problem=kreska pseudotaktowa	!	!	!
2D,<\)	.	.	1d	pa-	2f\	-bis	.	.
!	!	!	!	!	!	!	!LO:TX:t=P:problem=kreska pseudotaktowa	!
.	.	.	.	.	.	.	4a\)	.
!	!	!	!	!	!LO:LB:g=original	!	!	!
2A\	pa-	.	.	.	2e\	pa-	1a	.
!LO:TX:t=P:problem=kreska pseudotaktowa	!	!	!	!	!LO:TX:t=P:problem=kreska pseudotaktowa	!	!	!
2AA/	.	.	2c#X\	.	2e,<\	-cem	.	.
=43-	=43-	=43-	=43-	=43-	=43-	=43-	=43-	=43-
!	!	!	!LO:TX:t=P:problem=kreska pseudotaktowa	!	!	!	!LO:TX:t=P:problem=kreska pseudotaktowa	!
2D,<\	-cem	.	1d,<	-cem	2fn\	do-	1a,<	-cem
!LO:TX:t=P:problem=kreska pseudotaktowa	!	!	!	!	!LO:TX:t=P:problem=kreska pseudotaktowa	!	!	!
2r	.	.	.	.	2f\	-na	.	.
00r	.	.	1re	.	2g\	no-	00r	.
!	!	!	!	!	!LO:TX:t=P:problem=kreska pseudotaktowa	!	!	!
.	.	.	.	.	2a,<\	-bis	.	.
=44-	=44-	=44-	=44-	=44-	=44-	=44-	=44-	=44-
.	.	.	2rc	.	2d\	pa-	.	.
!	!	!	!LO:TX:t=P:problem=kreska pseudotaktowa	!	!	!	!	!
.	.	.	2cny\	Do-	1a	.	.	.
.	.	.	(2d\	.	.	.	.	.
.	.	.	2e\)	.	1g\	.	.	.
=45-	=45-	=45-	=45-	=45-	=45-	=45-	=45-	=45-
!	!	!	!	!	!	!	!LO:TX:t=P:problem=kreska pseudotaktowa	!
.	.	.	2A,<\	-na	.	.	.	.
.	.	.	1d	no-	2fn\	.	.	.
!	!	!	!	!	!LO:TX:t=P:problem=kreska pseudotaktowa	!	!	!
2r	.	.	.	.	1e	.	2r	.
!	!	!	!LO:TX:t=P:problem=kreska pseudotaktowa	!	!	!	!	!
4A\	do-	.	2c#X\	.	.	.	4a\	do-
!LO:TX:t=P:problem=kreska pseudotaktowa	!	!	!	!	!	!	!LO:TX:t=P:problem=kreska pseudotaktowa	!
4G\	-na	.	.	.	.	.	4a\	-na
!	!	!	!LO:LB:g=original	!	!	!	!	!
=46-	=46-	=46-	=46-	=46-	=46-	=46-	=46-	=46-
2F\	no-	.	2.d\	.	2fn,<\	-cem	2a\	no-
!LO:TX:t=P:problem=kreska pseudotaktowa	!	!	!	!	!	!	!LO:TX:t=P:problem=kreska pseudotaktowa	!
2D\	-bis	.	.	.	(4f\	do-	2a,<\	-bis
!	!	!	!	!	!LO:TX:t=P:problem=kreska pseudotaktowa	!	!	!
.	.	.	4cn\	.	4e\)	.	.	.
!	!	!	!	!	!	!	!LO:TX:t=P:problem=kreska pseudotaktowa	!
2.G\	pa-	.	2B,<\	-bis	2d\	.	[<1g	pa-
!	!	!	!LO:TX:t=P:problem=kreska pseudotaktowa	!	!LO:TX:t=P:problem=kreska pseudotaktowa	!	!	!
.	.	.	2B\	pa-	2d,<\	-na	.	.
4F\	.	.	.	.	.	.	.	.
=47-	=47-	=47-	=47-	=47-	=47-	=47-	=47-	=47-
2E\	.	.	2c,<\	-cem	2e\	no-	2g\]	.
*	*	*	*	*ij	*	*	*	*
!LO:TX:t=P:problem=kreska pseudotaktowa	!	!	!	!	!LO:TX:t=P:problem=kreska pseudotaktowa	!	!LO:TX:t=P:problem=kreska pseudotaktowa	!
2C/	.	.	1c	pa-	2e\	-bis	2g,<\	-cem
*	*	*	*	*	*	*	*	*ij
!LO:LB:g=original	!	!	!	!	!	!	!	!
2G\	.	.	.	.	1d	pa-	1g	pa-
!LO:TX:t=P:problem=kreska pseudotaktowa	!	!	!LO:TX:t=P:problem=kreska pseudotaktowa	!	!	!	!	!
2GG/	.	.	2B\	.	.	.	.	.
=48-	=48-	=48-	=48-	=48-	=48-	=48-	=48-	=48-
2C/	-cem.	.	2c\	-cem	2e,<\	-cem	2g,</	-cem
*	*	*	*	*Xij	*	*	*	*Xij
!LO:TX:t=P:problem=kreska pseudotaktowa	!	!	!LO:TX:t=P:problem=kreska pseudotaktowa	!	!LO:TX:t=P:problem=kreska pseudotaktowa	!	!	!
2r	.	.	2r	.	2r	.	4een\	do-
!	!	!	!	!	!	!	!LO:TX:t=P:problem=kreska pseudotaktowa	!
.	.	.	.	.	.	.	4dd\	-na
!LO:TX:t=P:problem=kreska pseudotaktowa	!	!	!LO:TX:t=P:problem=kreska pseudotaktowa	!	!	!	!	!
00r	.	.	00r	.	4a\	do-	4ccny\	no-
.	.	.	.	.	4g\	-na	4b\	-bis
.	.	.	.	.	4f\	no-	4a\	pa-
!	!	!	!	!	!LO:TX:t=P:problem=kreska pseudotaktowa	!	!LO:TX:t=P:problem=kreska pseudotaktowa	!
.	.	.	.	.	4e\	-bis	4a,<\	-cem
=49-	=49-	=49-	=49-	=49-	=49-	=49-	=49-	=49-
*	*	*	*	*	*	*	*	*ij
.	.	.	.	.	4d\	pa-	4dd\	do-
.	.	.	.	.	4d,<\	-cem	4cc\	-na
.	.	.	.	.	4g\	do-	4b\	no-
*	*	*	*	*	*custos:e	*	*	*
!	!	!	!	!	!LO:TX:t=P:problem=kreska pseudotaktowa	!	!	!
!	!	!	!	!	!	!	!LO:TX:t=P:problem=kreska pseudotaktowa	!
.	.	.	.	.	4f\	-na	4a\	-bis
.	.	.	.	.	(4e\	no-	4g/	pa-
.	.	.	.	.	4d\)	.	4g,</	-cem
*	*	*	*	*	*	*	*	*Xij
!	!	!	!	!	!LO:TX:t=P:problem=kreska pseudotaktowa	!	!	!
.	.	.	.	.	2c\	-bis	1cc\	do-
=50-	=50-	=50-	=50-	=50-	=50-	=50-	=50-	=50-
.	.	.	.	.	(2f\	pa-	.	.
!	!	!	!	!	!LO:TX:t=P:problem=kreska pseudotaktowa	!	!LO:TX:t=P:problem=kreska pseudotaktowa	!
.	.	.	.	.	2e\)	.	2cc\	-na
!	!	!	!	!	!LO:TX:t=P:problem=kreska pseudotaktowa	!	!LO:LB:g=original	!
1GG	do-	.	2d\	do-	1d	.	(2cc\	pa-
!	!	!	!	!	!	!	!LO:TX:t=P:problem=kreska pseudotaktowa	!
.	.	.	4g\	-na	.	.	2b\)	.
!	!	!	!LO:TX:t=P:problem=kreska pseudotaktowa	!	!	!	!	!
.	.	.	4fn\	.	.	.	.	.
=51-	=51-	=51-	=51-	=51-	=51-	=51-	=51-	=51-
!LO:TX:t=P:problem=kreska pseudotaktowa	!	!	!	!	!	!	!	!
1C,<	-na	.	1e	no-	2c,</	-cem	2cc\	-cem
!	!	!	!	!	!LO:TX:t=P:problem=kreska pseudotaktowa	!	!LO:TX:t=P:problem=kreska pseudotaktowa	!
.	.	.	.	.	2e\	do-	2r	.
!	!	!	!LO:TX:t=P:problem=kreska pseudotaktowa	!	!	!	!LO:TX:t=P:problem=kreska pseudotaktowa	!
1BBn	no-	.	1d,<	-bis	2g,<\	-na	0r	.
.	.	.	.	.	1g\	pa-	.	.
=52-	=52-	=52-	=52-	=52-	=52-	=52-	=52-	=52-
!LO:TX:t=P:problem=kreska pseudotaktowa	!	!	!	!	!	!	!	!
1AA	.	.	1c	pa-	.	.	.	.
!	!	!	!	!	!LO:TX:t=P:problem=kreska pseudotaktowa	!	!	!
.	.	.	.	.	2f#X\	.	.	.
!	!	!	!LO:TX:t=P:problem=kreska pseudotaktowa	!	!	!	!	!
2GG,</	-bis	.	1Bn	-cem	2g,<\	-cem	2.dd\	do-
!LO:TX:t=P:problem=kreska pseudotaktowa	!	!	!	!	!LO:TX:t=P:problem=kreska pseudotaktowa	!	!	!
[<2G\	pa-	.	.	.	[<2g\	Do-	.	.
!	!	!	!	!	!	!	!LO:TX:t=P:problem=kreska pseudotaktowa	!
.	.	.	.	.	.	.	4cc\	-na
=53-	=53-	=53-	=53-	=53-	=53-	=53-	=53-	=53-
4G\]	.	.	2rc	.	2g.\]	.	(4b\	no-
4F\	.	.	.	.	.	.	4a\)	.
!	!	!	!LO:TX:t=P:problem=kreska pseudotaktowa	!	!	!	!	!
4E\	.	.	[<2g\	do-	.	.	4g/	.
!LO:TX:t=P:problem=kreska pseudotaktowa	!	!	!	!	!LO:TX:t=P:problem=kreska pseudotaktowa	!	!LO:TX:t=P:problem=kreska pseudotaktowa	!
4D\	.	.	.	.	4fny\	.	4g,</	-bis
2C,</	-cem	.	4g\]	.	4e\	.	[2cc\	pa-
.	.	.	4fn\	.	4d\	.	.	.
!LO:TX:t=P:problem=kreska pseudotaktowa	!	!	!	!	!	!	!	!
2C/	do-	.	4e\	.	1c\	.	4cc\]	.
!	!	!	!	!	!	!	!LO:TX:t=P:problem=kreska pseudotaktowa	!
.	.	.	4d\	.	.	.	4b\	.
=54-	=54-	=54-	=54-	=54-	=54-	=54-	=54-	=54-
1F,<	-na	.	2c\	.	.	.	2a\	.
!	!	!	!	!	!LO:TX:t=P:problem=kreska pseudotaktowa	!	!LO:TX:t=P:problem=kreska pseudotaktowa	!
.	.	.	1A,<	-na	2c,</	-na	2a,<\	-cem
2D\	no-	.	.	.	2f\	no-	2dd\	do-
!LO:TX:t=P:problem=kreska pseudotaktowa	!	!	!LO:TX:t=P:problem=kreska pseudotaktowa	!	!	!	!	!
2D\	-bis	.	[<2d\	do-	(4f\	-bis	(4dd\	-na
!	!	!	!	!	!LO:TX:t=P:problem=kreska pseudotaktowa	!	!LO:TX:t=P:problem=kreska pseudotaktowa	!
.	.	.	.	.	4e\)	.	4cc\)	.
=55-	=55-	=55-	=55-	=55-	=55-	=55-	=55-	=55-
2.G\	do-	.	4d\]	.	2d\	pa-	2b\	no-
.	.	.	4c\	.	.	.	.	.
!	!	!	!	!	!LO:TX:t=P:problem=kreska pseudotaktowa	!	!LO:TX:t=P:problem=kreska pseudotaktowa	!
.	.	.	(4B\	-na	[<2g	.	2b\	-bis
4F,<\	-na	.	4A,<\)	.	.	.	.	.
!	!	!	!	!	!	!	!LO:TX:t=P:problem=kreska pseudotaktowa	!
2E\	no-	.	2e\	no-	1g]	.	[<1cc	pa-
!LO:TX:t=P:problem=kreska pseudotaktowa	!	!	!LO:TX:t=P:problem=kreska pseudotaktowa	!	!	!	!	!
2C/	-bis	.	2e,<\	-bis	.	.	.	.
=56-	=56-	=56-	=56-	=56-	=56-	=56-	=56-	=56-
!	!	!	!	!	!LO:TX:t=P:problem=kreska pseudotaktowa	!	!	!
2G\	pa-	.	1d	pa-	0g,<	-cem	2cc\]	.
*custos:C	*	*	*	*	*	*	*	*
!LO:TX:t=P:problem=kreska pseudotaktowa	!	!	!	!	!	!	!	!
!	!	!	!	!	!	!	!LO:TX:t=P:problem=kreska pseudotaktowa	!
2GG/	.	.	.	.	.	.	2b\	-cem
!LO:LB:g=original	!	!	!LO:TX:t=P:problem=kreska pseudotaktowa	!	!	!	!	!
2C,</	-cem	.	1e,<	-Cem	.	.	2r	.
*	*	*	*	*	*	*	*	*ij
!LO:TX:t=P:problem=kreska pseudotaktowa	!	!	!	!	!	!	!	!
2C/	do-	.	.	.	.	.	1cc\	do-
!	!	!	!LO:PB:g=original	!	!LO:LB:g=original	!	!	!
=57-	=57-	=57-	=57-	=57-	=57-	=57-	=57-	=57-
!LO:TX:t=P:problem=kreska pseudotaktowa	!	!	!LO:TX:t=P:problem=kreska pseudotaktowa	!	!LO:TX:t=P:problem=kreska pseudotaktowa	!	!	!
1D,<	-na	.	1re	.	0r	.	.	.
!	!	!	!	!	!	!	!LO:TX:t=P:problem=kreska pseudotaktowa	!
.	.	.	.	.	.	.	2b\	-na
1En	no-	.	4c\	do-	.	.	2cc\	no-
.	.	.	4d\	-na	.	.	.	.
.	.	.	4c\	no-	.	.	2cc,<\	-bis
!	!	!	!LO:TX:t=P:problem=kreska pseudotaktowa	!	!	!	!	!
.	.	.	4B\	-bis	.	.	.	.
=58-	=58-	=58-	=58-	=58-	=58-	=58-	=58-	=58-
!LO:TX:t=P:problem=kreska pseudotaktowa	!	!	!	!	!	!	!	!
1Fn,<	-bis	.	2A/	pa-	4d\	do-	1dd	pa-
.	.	.	.	.	4e\	-na	.	.
!	!	!	!LO:TX:t=P:problem=kreska pseudotaktowa	!	!	!	!	!
.	.	.	2A/	-cem	4d\	no-	.	.
!	!	!	!	!	!LO:TX:t=P:problem=kreska pseudotaktowa	!	!	!
.	.	.	.	.	4c\	-bis	.	.
*	*ij	*	*	*	*	*	*	*
!	!	!	!	!	!	!	!LO:TX:t=P:problem=kreska pseudotaktowa	!
4G|\	do-	.	2B\	do-	2B/	pa-	1g	-cem
*	*	*	*	*	*	*	*	*Xij
4A|,<\	-na	.	.	.	.	.	.	.
!	!	!	!LO:TX:t=P:problem=kreska pseudotaktowa	!	!LO:TX:t=P:problem=kreska pseudotaktowa	!	!	!
4G\	no-	.	2B\	-na	2B/	-cem	.	.
4F\	-bis	.	.	.	.	.	.	.
*	*Xij	*	*	*	*	*	*	*
!	!	!	!	!	!	!	!LO:LB:g=original	!
=59-	=59-	=59-	=59-	=59-	=59-	=59-	=59-	=59-
2E\	pa-	.	2c\	no-	2r	.	4cc\	do-
.	.	.	.	.	.	.	4dd\	-na
!LO:TX:t=P:problem=kreska pseudotaktowa	!	!	!LO:TX:t=P:problem=kreska pseudotaktowa	!	!LO:TX:t=P:problem=kreska pseudotaktowa	!	!	!
2E,<\	-cem	.	2c,<\	-bis	2g\	do-	4cc\	no-
!	!	!	!	!	!	!	!LO:TX:t=P:problem=kreska pseudotaktowa	!
.	.	.	.	.	.	.	4b\	-bis
*	*	*	*	*ij	*	*	*	*
1F	do-	.	2c\	do-	2fn,<\	-na	2a\	pa-
!	!	!	!LO:TX:t=P:problem=kreska pseudotaktowa	!	!	!	!LO:TX:t=P:problem=kreska pseudotaktowa	!
.	.	.	2c\	-na	(4f\	no-	2a,<\	-cem
!	!	!	!	!	!LO:TX:t=P:problem=kreska pseudotaktowa	!	!	!
.	.	.	.	.	4e\)	.	.	.
=60-	=60-	=60-	=60-	=60-	=60-	=60-	=60-	=60-
!LO:TX:t=P:problem=kreska pseudotaktowa	!	!	!	!	!	!	!	!
1G	-na	.	2B\	no-	2d\	.	2b\	do-
!	!	!	!LO:TX:t=P:problem=kreska pseudotaktowa	!	!LO:TX:t=P:problem=kreska pseudotaktowa	!	!LO:TX:t=P:problem=kreska pseudotaktowa	!
.	.	.	2B,<\	-bis	2d,<\	-bis	2b\	-na
*	*	*	*	*Xij	*	*	*	*
1E	no-	.	2e\	do-	2g\	do-	2cc\	no-
!	!	!	!LO:TX:t=P:problem=kreska pseudotaktowa	!	!LO:TX:t=P:problem=kreska pseudotaktowa	!	!LO:TX:t=P:problem=kreska pseudotaktowa	!
.	.	.	2e\	-na	2g\	-na	2cc\	-bis
=61-	=61-	=61-	=61-	=61-	=61-	=61-	=61-	=61-
(2F#X\	-bis	.	2d\	no-	2a\	no-	(2a\	pa-
!LO:TX:t=P:problem=kreska pseudotaktowa	!	!	!LO:TX:t=P:problem=kreska pseudotaktowa	!	!LO:TX:t=P:problem=kreska pseudotaktowa	!	!LO:TX:t=P:problem=kreska pseudotaktowa	!
2G,<\)	.	.	2d\	-bis	2g\	-bis	2b\)	.
2D\	pa-	.	2d\	pa-	2f#X\	pa-	(2a\	.
!	!	!	!LO:TX:t=P:problem=kreska pseudotaktowa	!	!	!	!LO:TX:t=P:problem=kreska pseudotaktowa	!
4BB/	.	.	2d\	-cem	2g\	.	2b\)	.
!LO:TX:t=P:problem=kreska pseudotaktowa	!	!	!	!	!	!	!	!
4GG/	.	.	.	.	.	.	.	.
=62-	=62-	=62-	=62-	=62-	=62-	=62-	=62-	=62-
!LO:TX:t=P:problem=kreska pseudotaktowa	!	!	!LO:TX:t=P:problem=kreska pseudotaktowa	!	!	!	!	!
[<0D	.	.	[<0d	pa-	2f#X\	.	2a\	.
!	!	!	!	!	!LO:TX:t=P:problem=kreska pseudotaktowa	!	!LO:TX:t=P:problem=kreska pseudotaktowa	!
.	.	.	.	.	2g\	.	2b\	.
.	.	.	.	.	2a\	.	2cc\	.
!	!	!	!	!	!	!	!LO:TX:t=P:problem=kreska pseudotaktowa	!
.	.	.	.	.	2g\	.	2b\	.
=63-	=63-	=63-	=63-	=63-	=63-	=63-	=63-	=63-
!LO:TX:t=P:problem=kreska pseudotaktowa	!	!	!LO:TX:t=P:problem=kreska pseudotaktowa	!	!	!	!	!
0D]	.	.	0d]	.	2f#X\	.	2a\	.
.	.	.	.	.	1g	.	2b\	.
.	.	.	.	.	.	.	1a	.
.	.	.	.	.	2f#\	.	.	.
=64-	=64-	=64-	=64-	=64-	=64-	=64-	=64-	=64-
0GGl;	-cem.	.	0dl;	-cem.	0gl;<	-cem.	0bl;	-cem
==	==	==	==	==	==	==	==	==
*-	*-	*-	*-	*-	*-	*-	*-	*-
!!!system-decoration: [(s1,s2,s3,s4)]
!!!RDF**kern: > = above
!!!RDF**kern: < = below
!!!RDF**kern: l = terminal long
!!!RDF**kern: | = vertical stroke
!!!ENC: Andrzej Kubiczek
!!!END: 2021-07-26
!!!ENC: Tomasz Grochalski
!!!END: 2021-07-04
